Sources/FrostedUI/Resources/Icons.xcassets/truck32.imageset/truck-32.svg

<svg width="32" height="32" viewBox="0 0 32 32" fill="none" xmlns="http://www.w3.org/2000/svg" data-fui-icon="true">
  <path
    d="M18.9307 5.75049C21.8034 5.75049 24.0193 8.28089 23.6396 11.1284L23.4902 12.2505H26.4551C27.686 12.2505 28.8108 12.9464 29.3613 14.0474L30.8213 16.9663C31.1167 17.5574 31.2252 18.2252 31.1318 18.8794L30.5488 22.9604C30.3197 24.561 28.949 25.7504 27.332 25.7505H27.1367C26.7794 27.8784 24.9296 29.5004 22.7002 29.5005C20.4707 29.5005 18.621 27.8784 18.2637 25.7505H13.7363C13.379 27.8784 11.5293 29.5005 9.2998 29.5005C7.01234 29.5004 5.124 27.7931 4.83789 25.5835C2.89681 25.0108 1.59425 23.0415 1.97754 20.9312L2.37402 18.7505H1.59961C1.18571 18.7503 0.849873 18.4144 0.849609 18.0005C0.849609 17.5864 1.18555 17.2507 1.59961 17.2505H6.39941C6.81363 17.2505 7.14941 17.5863 7.14941 18.0005C7.14915 18.4145 6.81346 18.7505 6.39941 18.7505H3.89844L3.45312 21.1987C3.2346 22.4018 3.88185 23.5322 4.91016 24.0103C5.36116 22.0013 7.1547 20.5005 9.2998 20.5005C11.5296 20.5005 13.3794 22.1221 13.7363 24.2505H18.2637C18.5133 22.762 19.4927 21.5222 20.8223 20.9106L22.1523 10.9302C22.4121 8.98187 20.8962 7.25049 18.9307 7.25049H6C5.58597 7.25046 5.25026 6.91446 5.25 6.50049C5.25 6.08629 5.58581 5.75051 6 5.75049H18.9307ZM9.2998 22.0005C7.64301 22.0006 6.2998 23.3437 6.2998 25.0005C6.30007 26.6571 7.64317 28.0004 9.2998 28.0005C10.9565 28.0005 12.2995 26.6571 12.2998 25.0005C12.2998 23.3436 10.9567 22.0005 9.2998 22.0005ZM22.7002 22.0005C21.0433 22.0005 19.7002 23.3436 19.7002 25.0005C19.7005 26.6571 21.0435 28.0005 22.7002 28.0005C24.3568 28.0004 25.6999 26.657 25.7002 25.0005C25.7002 23.3437 24.3569 22.0006 22.7002 22.0005ZM22.3877 20.5112C22.4909 20.5042 22.5952 20.5005 22.7002 20.5005C24.9299 20.5006 26.7798 22.1221 27.1367 24.2505H27.332C28.2026 24.2504 28.9411 23.6094 29.0645 22.7476L29.6475 18.6675C29.6978 18.3153 29.6385 17.9555 29.4795 17.6372L28.0205 14.7183C27.7241 14.1254 27.1179 13.7505 26.4551 13.7505H23.29L22.3877 20.5112ZM11.1992 11.2505C11.6134 11.2505 11.9492 11.5863 11.9492 12.0005C11.949 12.4145 11.6133 12.7505 11.1992 12.7505H1.59961C1.18571 12.7503 0.849873 12.4144 0.849609 12.0005C0.849609 11.5864 1.18555 11.2507 1.59961 11.2505H11.1992Z"
    fill="currentColor"
  />
</svg>

<svg xmlns="http://www.w3.org/2000/svg" width="32" height="32" fill="none" data-fui-icon="true" viewBox="0 0 32 32"><path fill="currentColor" d="M18.93 5.75a4.75 4.75 0 0 1 4.71 5.378l-.15 1.123h2.965a3.25 3.25 0 0 1 2.906 1.796l1.46 2.92c.296.59.404 1.258.31 1.912l-.582 4.081a3.25 3.25 0 0 1-3.217 2.79h-.195a4.5 4.5 0 0 1-8.873 0h-4.528a4.5 4.5 0 0 1-8.898-.166 4.09 4.09 0 0 1-2.86-4.653l.396-2.18H1.6a.75.75 0 0 1 0-1.5h4.8a.75.75 0 0 1 0 1.5H3.897l-.445 2.448A2.59 2.59 0 0 0 4.91 24.01a4.5 4.5 0 0 1 8.826.24h4.528a4.5 4.5 0 0 1 2.558-3.34l1.33-9.98a3.25 3.25 0 0 0-3.221-3.68H6a.75.75 0 0 1 0-1.5zM9.3 22a3 3 0 1 0 0 6 3 3 0 0 0 0-6m13.4 0a3 3 0 1 0 0 6 3 3 0 0 0 0-6m-.312-1.489a4.5 4.5 0 0 1 4.749 3.74h.195c.87 0 1.61-.642 1.732-1.503l.584-4.08a1.75 1.75 0 0 0-.168-1.03l-1.46-2.92a1.75 1.75 0 0 0-1.565-.967H23.29zm-11.189-9.26a.75.75 0 0 1 0 1.5H1.6a.75.75 0 0 1 0-1.5z"/></svg>
